assets/images/simple-illustrations/simple-illustration__qr-code.svg

<svg xmlns="http://www.w3.org/2000/svg" width="48" height="48" fill="none" viewBox="0 0 48 48"><rect width="34.882" height="34.882" x="6.559" y="6.559" fill="#FCDCFF" stroke="#002140" rx="4.5"/><path fill="#003C73" d="M11.2942 22.1848H22.1849V11.2941H11.2942V22.1848ZM14.9244 14.9243H18.5547V18.5546H14.9244V14.9243ZM25.8152 11.2941V22.1848H36.706V11.2941H25.8152ZM33.0757 18.5546H29.4454V14.9243H33.0757V18.5546ZM11.2942 36.7058H22.1849V25.8151H11.2942V36.7058ZM14.9244 29.4453H18.5547V33.0756H14.9244V29.4453ZM34.8908 25.8151H36.706V33.0756H31.2606V31.2605H29.4454V36.7058H25.8152V25.8151H31.2606V27.6302H34.8908V25.8151ZM34.8908 34.8907H36.706V36.7058H34.8908V34.8907ZM31.2606 34.8907H33.0757V36.7058H31.2606V34.8907Z"/></svg>

<svg xmlns="http://www.w3.org/2000/svg" width="48" height="48" fill="none" viewBox="0 0 48 48"><rect width="34.882" height="34.882" x="6.559" y="6.559" fill="#fcdcff" stroke="#002140" rx="4.5"/><path fill="#003c73" d="M11.294 22.185h10.89v-10.89h-10.89zm3.63-7.26h3.63v3.63h-3.63zm10.891-3.63v10.89h10.891v-10.89zm7.26 7.26h-3.63v-3.63h3.63zm-21.78 18.15h10.89v-10.89h-10.89zm3.63-7.26h3.63v3.63h-3.63zm19.966-3.63h1.815v7.26h-5.445V31.26h-1.816v5.446h-3.63v-10.89h5.446v1.814h3.63zm0 9.076h1.815v1.815h-1.815zm-3.63 0h1.815v1.815H31.26z"/></svg>
